X:227
T:Lord, Thee I Love with All My Heart
%%stretchlast false
M:4/4
L:1/4
K:G clef=C1
"^I"[G,Bdg]2 "^V"[D,Adf] "^IV¹"[E,Gce] | "^V¹"[F,DAd] "^iv"[G,DGc]/ "^I"[G,DGB]/ "^IV"[CEGe] [CGce] | "^I"[G,GBd]2 "^vi"[E,Beg]2 | "^iii"[B,Bdf] "^IV"[CGce] "^V"[DFAd] "^iv"[G,DGc]/ "^I"[G,DGB]/ | "^IV"[CEGe] "^ii¹"[CEAe] "^iii"[B,FBd] "^I"[G,GBd] | "^IV"[CGce] "^vii°¹"[A,Acf] "^I¹"[B,Gdg] "^I"[G,Gdb] | "^V"[DFda] "^vi"[EGBg] "^IV¹"[EGcg] "^V"[DAdf] | "^I"[G,Bdg]4 | [G,Bdg]2 "^V"[D,Adf] "^IV¹"[E,Gce] | "^V¹"[F,DAd] "^iv"[G,DGc]/ "^I"[G,DGB]/ "^IV"[CEGe] [CGce] | "^I"[G,GBd]2 "^vi"[E,Beg]2 | "^iii"[B,Bdf] "^IV"[CGce] "^V"[DFAd] "^iv"[G,DGc]/ "^I"[G,DGB]/ | "^IV"[CEGe] "^ii¹"[CEAe] "^iii"[B,FBd] "^I"[G,GBd] | "^IV"[CGce] "^vii°¹"[A,Acf] "^I¹"[B,Gdg] "^I"[G,Gdb] | "^V"[DFda] "^vi"[EGBg] "^IV¹"[EGcg] "^V"[DAdf] | "^i"[G,Gdg]3 "^I"[G,GBg] | [G,Bdg] "^V¹"[F,Ada] "^I"[G,Bdg] "^IV"[CGce] | "^vi"[EGBg] "^♭v°¹"[EG^cg] "^V"[DAdf] [DAdf] | "^I"[G,Bdg] "^V¹"[F,Ada] "^I"[G,Bdg] "^IV"[CGce] | "^I¹"[B,Bdg] "^II7¹"[^CAeg] "^V"[DAdf]2 | "^I¹"[B,Gdg] "^I"[G,Gdb]/ [G,Gdb]/ "^V"[DFda]/ "^vi"[EGBg]/ "^ii7¹"[CAeg]/ "^V"[DAdf]/ | "^I"[G,Bdg] "^V"[DAdf] "^I"[G,Bdg]2 | [G,Bdg] "^V"[DAdf] "^vi"[EGBe] "^iii"[B,FBd] | "^vi7¹"[G,EBd] "^V/V"[A,EA^c] "^V"[DFAd]2 | "^i"[G,d]2 "^I²"[DGdb]2 | "^vii"[EFBa] "^vii7³"[EF^ca] "^i"[DGdg] [Gdg] | "^viiø7²"[CAef] "^I²"[DGdb] "^IVmaj7¹"[EGBc'] "^vii7¹"[A,Fea] | "^I¹"[B,Gdg] "^v7"[Dcda] "^I"[G,Bdg] "^V"[G,Adf]/ [G,Adf]/ | "^IVmaj7"[CBeg] "^I"[G,Bdg]/ [G,Bdg]/ "^V"[F,cdg] "^I"[G,Bdg] | "^ii¹"[CAea] "^I²"[DBdg] [G,Adg] "^V"[G,Adf] | "^I"[G,Bdg]4 |]
